X: 31
T:Gumboots
M:6/8
L:1/8
Q:120
C:John Clarke, alias Fred Dagg
K:D
&quot;D&quot;f2f2ff|&quot;A&quot;eee- e3|&quot;G&quot;d2d2dd|&quot;D&quot;d3-d2d|&quot;G&quot;B2BB2B|&quot;D&quot;Ad2-d2f|!
&quot;Em&quot;g2g f2g|&quot;A&quot;e3-e2A|&quot;D&quot;A2A AG2|F2A A3|&quot;G&quot;B2c d2B|&quot;D&quot;A3-A2F|!
AAA B2F|A2A d2f|&quot;A&quot;e6|&quot;D&quot;d3 &quot;Chorus&quot;d2e|&quot;D&quot;f3 f2d|&quot;A&quot;e3e3|&quot;G&quot;d3 d2d|!
&quot;D&quot;d6|&quot;G&quot;B2BB2B|&quot;D&quot;A2A d2f|&quot;Em&quot;g3 f2g|&quot;A&quot;e3-e2A|&quot;D&quot;A2A A2G|FAA A2A|!
&quot;G&quot;B2c d2B|&quot;D&quot;A3 F2G|AA2 B2F|A3 d2f|&quot;A&quot;e6|&quot;D&quot;d3-d2z||
